X:1
T:Mrs. Oswald (of Auchincruives)—New [2]
M:C
L:1/8
R:Strathspey
S:Glen Collection, vol. 2  (1895)
Z:AK/Fiddler’s Companion
K:F
A/B/|c<F A>G F2 FA/B/|c<F A>c d/c/B/A/ G<d|c<F A>F D<FC<F|E/F/G C>B A<FF:|
c|f<c a>g f2 fe/d/|c<F A>f e/d/B/A/ G>e|f<ca<f d<fc<f|B/c/d c>B AFFc|
f<c a>g f2 fe/d/|c<F A>c d/c/B/A/ G>B|A<fB<f c<fd<f|egce f2 fe/d/||

